assets/img/braze_icons/lightbulb-02.svg

<svg fill="none" height="24" viewBox="0 0 24 24" width="24" xmlns="http://www.w3.org/2000/svg"><g clip-rule="evenodd" fill="#801ed7" fill-rule="evenodd"><path d="m12 5c-3.86599 0-7 3.13401-7 7 0 2.7924 1.63505 5.2029 4 6.3264v1.6737c0 1.6569 1.3431 3 3 3s3-1.3431 3-3v-1.6737c2.3649-1.1235 4-3.534 4-6.3264 0-3.86599-3.134-7-7-7z"/><path d="m12 1c.5523 0 1 .44772 1 1v1c0 .55228-.4477 1-1 1s-1-.44772-1-1v-1c0-.55228.4477-1 1-1z"/><path d="m1 12c0-.5523.44772-1 1-1h1c.55228 0 1 .4477 1 1s-.44772 1-1 1h-1c-.55228 0-1-.4477-1-1z"/><path d="m4.1928 4.1928c.39052-.39053 1.02368-.39053 1.41421 0l.6001.60009c.39052.39053.39052 1.02369 0 1.41422-.39053.39052-1.02369.39052-1.41422 0l-.60009-.6001c-.39053-.39053-.39053-1.02369 0-1.41421z"/><path d="m19.8074 4.19288c.3905.39058.3904 1.02374-.0001 1.41422l-.6003.6001c-.3906.39047-1.0237.39039-1.4142-.00018-.3905-.39058-.3904-1.02374.0002-1.41422l.6002-.60009c.3906-.39048 1.0238-.3904 1.4142.00017z"/><path d="m20 12c0-.5523.4477-1 1-1h1c.5523 0 1 .4477 1 1s-.4477 1-1 1h-1c-.5523 0-1-.4477-1-1z"/></g></svg>

<svg width="24" height="24" viewBox="0 0 24 24" fill="none" xmlns="http://www.w3.org/2000/svg">
<path fill-rule="evenodd" clip-rule="evenodd" d="M12 5C8.13401 5 5 8.13401 5 12C5 14.7924 6.63505 17.2029 9 18.3264V20.0001C9 21.657 10.3431 23.0001 12 23.0001C13.6569 23.0001 15 21.657 15 20.0001V18.3264C17.3649 17.2029 19 14.7924 19 12C19 8.13401 15.866 5 12 5Z" fill="#801ED7"/>
<path fill-rule="evenodd" clip-rule="evenodd" d="M12 1C12.5523 1 13 1.44772 13 2V3C13 3.55228 12.5523 4 12 4C11.4477 4 11 3.55228 11 3V2C11 1.44772 11.4477 1 12 1Z" fill="#801ED7"/>
<path fill-rule="evenodd" clip-rule="evenodd" d="M1 12C1 11.4477 1.44772 11 2 11H3C3.55228 11 4 11.4477 4 12C4 12.5523 3.55228 13 3 13H2C1.44772 13 1 12.5523 1 12Z" fill="#801ED7"/>
<path fill-rule="evenodd" clip-rule="evenodd" d="M4.1928 4.1928C4.58332 3.80227 5.21648 3.80227 5.60701 4.1928L6.20711 4.79289C6.59763 5.18342 6.59763 5.81658 6.20711 6.20711C5.81658 6.59763 5.18342 6.59763 4.79289 6.20711L4.1928 5.60701C3.80227 5.21648 3.80227 4.58332 4.1928 4.1928Z" fill="#801ED7"/>
<path fill-rule="evenodd" clip-rule="evenodd" d="M19.8074 4.19288C20.1979 4.58346 20.1978 5.21662 19.8073 5.6071L19.207 6.2072C18.8164 6.59767 18.1833 6.59759 17.7928 6.20702C17.4023 5.81644 17.4024 5.18328 17.793 4.7928L18.3932 4.19271C18.7838 3.80223 19.417 3.80231 19.8074 4.19288Z" fill="#801ED7"/>
<path fill-rule="evenodd" clip-rule="evenodd" d="M20 12C20 11.4477 20.4477 11 21 11H22C22.5523 11 23 11.4477 23 12C23 12.5523 22.5523 13 22 13H21C20.4477 13 20 12.5523 20 12Z" fill="#801ED7"/>
</svg>
